proprietary/assets/icons/vervoersmiddelen/touringcar.svg

<svg enable-background="new 0 0 64 64" viewBox="0 0 64 64" xmlns="http://www.w3.org/2000/svg"><path d="m0 0h64v64h-64z" fill="none"/><path d="m57 16h-1c-.552 0-1 .448-1 1v10c0 .552.448 1 1 1h1c1.104 0 2-.896 2-2v-8c0-1.104-.896-2-2-2z"/><path d="m8 16h-1c-1.104 0-2 .896-2 2v8c0 1.104.896 2 2 2h1c.552 0 1-.448 1-1v-10c0-.552-.448-1-1-1z"/><path d="m48.367 7h-32.734c-2.075 0-3.817 1.516-4.064 3.529-.605 4.922-1.569 14.49-1.569 25.471v15s0 3.574.366 5.069c.134.544.722.931 1.4.931h2.234 2.234c.678 0 1.267-.387 1.4-.931.221-.905.309-2.567.343-3.741 0 0-3.594-.757-4.594-.953-.316-.062-.336-.249-.289-.374h37.813c.031.133.015.305-.344.391-.156.037-4.54.937-4.54.937.034 1.174.122 2.837.343 3.741.134.543.722.93 1.4.93h2.234 2.234c.678 0 1.267-.387 1.4-.931.366-1.495.366-5.069.366-5.069v-15c0-10.981-.964-20.549-1.569-25.471-.247-2.013-1.99-3.529-4.064-3.529zm-26.367 38c0 .552-.448 1-1 1h-6c-.552 0-1-.448-1-1v-2c0-.65.611-1.128 1.243-.97l6 .97c.445.111.757.511.757.97zm28 0c0 .552-.448 1-1 1h-6c-.552 0-1-.448-1-1v-1.03c0-.459.312-.859.757-.97l6-.97c.632-.158 1.243.32 1.243.97zm0-8c0 .552-.448 1-1 1h-34c-.552 0-1-.448-1-1v-1c0-10.2.853-19.219 1.427-24.124.059-.504.479-.88.986-.88 4.671-.003 26.497-.012 31.167-.014.508 0 .928.375.987.879.58 4.923 1.433 13.941 1.433 24.139z"/></svg>

<?xml version="1.0" encoding="utf-8"?>
<!-- Generator: Adobe Illustrator 25.0.0, SVG Export Plug-In . SVG Version: 6.00 Build 0)  -->
<svg version="1.1" xmlns="http://www.w3.org/2000/svg" xmlns:xlink="http://www.w3.org/1999/xlink" x="0px" y="0px"
	 viewBox="0 0 64 64" style="enable-background:new 0 0 64 64;" xml:space="preserve">
<style type="text/css">
	.st0{fill:none;}
	.st1{fill:#FFFFFF;}
</style>
<g id="Box">
	<rect class="st0" width="64" height="64"/>
</g>
<g id="Icon">
	<g>
		<path d="M57,16h-1c-0.552,0-1,0.448-1,1v10c0,0.552,0.448,1,1,1h1c1.104,0,2-0.896,2-2v-8C59,16.896,58.104,16,57,16z"/>
		<path d="M8,16H7c-1.104,0-2,0.896-2,2v8c0,1.104,0.896,2,2,2h1c0.552,0,1-0.448,1-1V17C9,16.448,8.552,16,8,16z"/>
		<path d="M48.367,7H15.633c-2.075,0-3.817,1.516-4.064,3.529C10.964,15.451,10,25.019,10,36v15c0,0,0,3.574,0.366,5.069
			C10.5,56.613,11.088,57,11.766,57H14h2.234c0.678,0,1.267-0.387,1.4-0.931c0.221-0.905,0.309-2.567,0.343-3.741
			c0,0-3.594-0.757-4.594-0.953c-0.316-0.062-0.336-0.249-0.289-0.374h37.813c0.031,0.133,0.015,0.305-0.344,0.391
			c-0.156,0.037-4.54,0.937-4.54,0.937c0.034,1.174,0.122,2.837,0.343,3.741C46.5,56.613,47.088,57,47.766,57H50h2.234
			c0.678,0,1.267-0.387,1.4-0.931C54,54.574,54,51,54,51V36c0-10.981-0.964-20.549-1.569-25.471C52.184,8.516,50.441,7,48.367,7z
			 M22,45c0,0.552-0.448,1-1,1h-6c-0.552,0-1-0.448-1-1v-2c0-0.65,0.611-1.128,1.243-0.97l6,0.97C21.688,43.111,22,43.511,22,43.97
			V45z M50,45c0,0.552-0.448,1-1,1h-6c-0.552,0-1-0.448-1-1v-1.03c0-0.459,0.312-0.859,0.757-0.97l6-0.97
			C49.389,41.872,50,42.35,50,43V45z M50,37c0,0.552-0.448,1-1,1H15c-0.552,0-1-0.448-1-1v-1c0-10.2,0.853-19.219,1.427-24.124
			c0.059-0.504,0.479-0.88,0.986-0.88c4.671-0.003,26.497-0.012,31.167-0.014c0.508,0,0.928,0.375,0.987,0.879
			C49.147,16.784,50,25.802,50,36V37z"/>
	</g>
</g>
</svg>
